icons/githubcopilot-dark.svg

<svg width="256" height="256" viewBox="0 0 256 256" fill="none" xmlns="http://www.w3.org/2000/svg">
<rect x="0.00282288" y="0.000518799" width="256" height="256" rx="50" fill="#282828"/>
<path d="M184.038 75.6154C194.204 86.3462 198.473 101 200.273 121.538C205.051 121.538 209.507 122.598 212.515 126.696L218.134 134.312C219.75 136.504 220.615 139.123 220.615 141.846V162.535C220.609 165.206 219.286 167.81 217.131 169.388C191.686 188.016 160.29 203 128.308 203C92.9238 203 57.4975 182.611 39.4846 169.388C37.3293 167.81 36.0052 165.206 36 162.535V141.846C36 139.123 36.8654 136.492 38.4692 134.3L44.0885 126.696C47.098 122.617 51.5735 121.538 56.3423 121.538C58.1423 101 62.4 86.3462 72.5769 75.6154C91.7677 55.2823 117.178 53.0434 127.985 53.0006L128.308 53C138.923 53 164.654 55.0769 184.038 75.6154ZM128.319 109.781C126.127 109.781 123.6 109.908 120.911 110.173C119.965 113.704 118.569 116.888 116.527 118.919C108.45 126.996 98.7115 128.242 93.4961 128.242C88.5907 128.242 83.4523 127.218 79.2577 124.573C75.2896 125.877 71.4792 127.757 71.2269 132.442C70.8044 141.298 70.7677 150.146 70.7309 158.998C70.7117 163.441 70.6942 167.884 70.6269 172.331C70.6442 174.912 72.2004 177.309 74.55 178.377C93.6461 187.077 111.704 191.462 128.319 191.462C144.911 191.462 162.969 187.077 182.054 178.377C184.403 177.309 185.959 174.912 185.977 172.331C186.206 159.048 186.021 145.712 185.388 132.442H185.4C185.153 127.73 181.327 125.881 177.346 124.573C173.149 127.207 168.023 128.242 163.119 128.242C157.904 128.242 148.177 126.996 140.088 118.919C138.046 116.888 136.65 113.704 135.704 110.173C133.25 109.923 130.786 109.793 128.319 109.781ZM108.891 141.462C113.036 141.462 116.396 144.822 116.396 148.968V162.802C116.396 166.947 113.036 170.308 108.891 170.308C104.745 170.308 101.385 166.947 101.385 162.802V148.968C101.385 144.822 104.745 141.462 108.891 141.462ZM147.352 141.462C151.497 141.462 154.858 144.822 154.858 148.968V162.802C154.858 166.947 151.497 170.308 147.352 170.308C143.207 170.308 139.846 166.947 139.846 162.802V148.968C139.846 144.822 143.207 141.462 147.352 141.462ZM94.7307 73.4231C86.6538 74.2308 79.8461 76.8846 76.3846 80.5769C68.8846 88.7692 70.5 109.538 74.7692 113.923C77.8846 117.038 83.7692 119.115 90.1153 119.115C94.9615 119.115 104.192 118.077 111.808 110.346C115.154 107.115 117.231 99.0385 117 90.8462C116.769 84.2692 114.923 78.8462 112.154 76.5385C109.154 73.8846 102.346 72.7308 94.7307 73.4231ZM144.461 76.5385C141.692 78.8462 139.846 84.2692 139.615 90.8462C139.385 99.0385 141.461 107.115 144.808 110.346C152.423 118.077 161.654 119.115 166.5 119.115C172.846 119.115 178.731 117.038 181.846 113.923C186.115 109.538 187.731 88.7692 180.231 80.5769C176.769 76.8846 169.961 74.2308 161.885 73.4231C154.269 72.7308 147.461 73.8846 144.461 76.5385ZM128.308 93.3846C126.461 93.3846 124.269 93.5 121.846 93.7308C122.077 95 122.192 96.3846 122.308 97.8846C122.308 98.9231 122.308 99.9615 122.192 101.115C124.5 100.885 126.461 100.885 128.308 100.885C130.154 100.885 132.115 100.885 134.423 101.115C134.308 99.9615 134.308 98.9233 134.308 97.8848C134.423 96.3848 134.538 95 134.769 93.7308C132.346 93.5 130.154 93.3846 128.308 93.3846Z" fill="white"/>
</svg>

<svg xmlns="http://www.w3.org/2000/svg" width="256" height="256" fill="none"><rect width="256" height="256" x=".003" y=".001" fill="#282828" rx="50"/><path fill="#fff" d="M184.038 75.615c10.166 10.731 14.435 25.385 16.235 45.923 4.778 0 9.234 1.06 12.242 5.158l5.619 7.616a12.65 12.65 0 0 1 2.481 7.534v20.689c-.006 2.671-1.329 5.275-3.484 6.853C191.686 188.016 160.29 203 128.308 203c-35.384 0-70.81-20.389-88.823-33.612-2.156-1.578-3.48-4.182-3.485-6.853v-20.689c0-2.723.865-5.354 2.47-7.546l5.619-7.604c3.009-4.079 7.485-5.158 12.253-5.158C58.142 101 62.4 86.346 72.577 75.615c19.19-20.333 44.601-22.572 55.408-22.614l.323-.001c10.615 0 36.346 2.077 55.73 22.615m-55.719 34.166c-2.192 0-4.719.127-7.408.392-.946 3.531-2.342 6.715-4.384 8.746-8.077 8.077-17.815 9.323-23.03 9.323-4.906 0-10.045-1.024-14.24-3.669-3.967 1.304-7.778 3.184-8.03 7.869-.423 8.856-.46 17.704-.496 26.556-.02 4.443-.037 8.886-.104 13.333a6.75 6.75 0 0 0 3.923 6.046c19.096 8.7 37.154 13.085 53.769 13.085 16.592 0 34.65-4.385 53.735-13.085a6.75 6.75 0 0 0 3.923-6.046 616 616 0 0 0-.589-39.889h.012c-.247-4.712-4.073-6.561-8.054-7.869-4.197 2.634-9.323 3.669-14.227 3.669-5.215 0-14.942-1.246-23.031-9.323-2.042-2.031-3.438-5.215-4.384-8.746a77 77 0 0 0-7.385-.392m-19.428 31.681a7.505 7.505 0 0 1 7.505 7.506v13.834a7.506 7.506 0 1 1-15.011 0v-13.834a7.505 7.505 0 0 1 7.506-7.506m38.461 0a7.506 7.506 0 0 1 7.506 7.506v13.834a7.507 7.507 0 0 1-15.012 0v-13.834a7.506 7.506 0 0 1 7.506-7.506M94.731 73.423c-8.077.808-14.885 3.462-18.346 7.154-7.5 8.192-5.885 28.961-1.616 33.346 3.116 3.115 9 5.192 15.346 5.192 4.847 0 14.077-1.038 21.693-8.769 3.346-3.231 5.423-11.308 5.192-19.5-.231-6.577-2.077-12-4.846-14.308-3-2.653-9.808-3.807-17.423-3.115m49.73 3.115c-2.769 2.308-4.615 7.731-4.846 14.308-.23 8.192 1.846 16.269 5.193 19.5 7.615 7.731 16.846 8.769 21.692 8.769 6.346 0 12.231-2.077 15.346-5.192 4.269-4.385 5.885-25.154-1.615-33.346-3.462-3.692-10.27-6.346-18.346-7.154-7.616-.692-14.424.462-17.424 3.115m-16.153 16.847c-1.847 0-4.039.115-6.462.346.231 1.269.346 2.654.462 4.154 0 1.038 0 2.076-.116 3.23 2.308-.23 4.269-.23 6.116-.23s3.807 0 6.115.23c-.115-1.153-.115-2.192-.115-3.23.115-1.5.23-2.885.461-4.154-2.423-.231-4.615-.346-6.461-.346"/></svg>
